X:59
T:Paddy Carey      edited
O:No 59 Wm Clarke of Feltwell  MS 1858
N:MS had 9 bars in first strain and odd note values.
N:Bars 7 and 8 adjusted.
N:Opening repeat mark added.
N:Closing repeat added.
I:abc2nwc
M:6/8
L:1/8
K:D
A "^*"|:A2d dcd|f2d d2d|B2e e2e|g2e cBA|
A2d dcd|f2d d3|c3/2B/2A A"^*"Bc|d3/2e/2f e2d:|
|:d2f g2b|a2b afd|d2f g2b|afd e3|
d2f g2b|a2b afd|dcB ABc|def fed:|

